icons/op-outline-24.svg

<svg width="24" height="24" viewBox="0 0 24 24" fill="none" xmlns="http://www.w3.org/2000/svg">
<path d="M18.0938 10.4062H13.3125V6C13.3125 4.90625 12.4062 4 11.3125 4H6C4.90625 4 4 4.90625 4 6V11.2812C4 12.4062 4.90625 13.3125 6 13.3125H10.4062V18.0938C10.4062 19.125 11.2812 20 12.3438 20H18.0938C19.1562 20 20 19.125 20 18.0938V12.3438C20 11.2812 19.1562 10.4062 18.0938 10.4062ZM4.5 6C4.5 5.1875 5.1875 4.5 6 4.5H11.3125C12.125 4.5 12.8125 5.1875 12.8125 6V10.4062H12.3438C11.2812 10.4062 10.4062 11.2812 10.4062 12.3438V12.8125H6C5.1875 12.8125 4.5 12.125 4.5 11.2812V6ZM17.6875 15.75H15.7188V17.6562H14.5625V15.75H12.5938V14.5938H14.5625V12.5625H15.7188V14.5938H17.6875V15.75ZM6.125 8.09375H11.1875V9.21875H6.125V8.09375Z" fill="black"/>
</svg>

<svg xmlns="http://www.w3.org/2000/svg" width="24" height="24" viewBox="0 0 24 24"><path d="M18.094 10.406h-4.782V6c0-1.094-.906-2-2-2H6c-1.094 0-2 .906-2 2v5.281c0 1.125.906 2.031 2 2.031h4.406v4.782c0 1.031.875 1.906 1.938 1.906h5.75A1.914 1.914 0 0 0 20 18.094v-5.75c0-1.063-.844-1.938-1.906-1.938ZM4.5 6c0-.812.688-1.5 1.5-1.5h5.312c.813 0 1.5.688 1.5 1.5v4.406h-.468a1.947 1.947 0 0 0-1.938 1.938v.468H6c-.812 0-1.5-.687-1.5-1.531V6Zm13.188 9.75h-1.969v1.906h-1.157V15.75h-1.968v-1.156h1.968v-2.032h1.157v2.032h1.969v1.156ZM6.125 8.094h5.063v1.125H6.125V8.094Z"/></svg>
